!!!SOCIAL_FUNCTION:	miscellaneous songs
!!!PDT:	1922
!!!OTL: No_104_Smoking_Song_(b).krn
!!!REG: Southwest
!!!LANG: Non-Tone
!!!LING_GROUP: Uto-Aztecan
**kern	**kern
*staff2	*staff1
=1-	=1-
*clefF4	*clefF4
*k[f#c#g#d#a#]	*k[f#c#g#d#a#]
*M3/4	*M3/4
4GG#/	8.d#\L
.	16B\Jk
4GG#/	4d#\
4GG#/	4d#\
=2	=2
4GG#/	16B\LL
.	16B\
.	16G#\
.	16B\JJ
4GG#/	2B\
4GG#/	.
=3	=3
2.r	12d#\L
.	12B\
.	[12d#\J
.	4d#\]
.	4d#\
=4||	=4||
*M2/4	*M2/4
2r	16B\LL
.	16B\
.	16G#\
.	16B\JJ
.	4B\
=5	=5
2r	4B\
.	4B\
=6	=6
2r	12G#\L
.	12D#\
.	12G#\J
.	4G#\
=7	=7
2r	4G#\
.	8G#\L
.	8G#\J
=8||	=8||
*M3/4	*M3/4
2.r	12B\L
.	12G#\
.	12B\J
.	4B\
.	4B\
=9	=9
2.r	12G#\L
.	12D#\
.	12G#\J
.	4G#\
.	4G#\
=10||	=10||
*M2/4	*M2/4
2r	12D#\L
.	12C#\
.	12D#\J
.	4D#\
=11||	=11||
*M3/4	*M3/4
2.r	8D#/L
.	8C#/J
.	2C#/
=12	=12
2.r	4G#\
.	8G#\L
.	8G#\J
.	4G#\
=13||	=13||
*M2/4	*M2/4
2r	12D#\L
.	12C#\
.	12D#\J
.	4D#\
=14||	=14||
*M3/4	*M3/4
2.r	8D#/L
.	8C#/J
.	2C#/
=15	=15
2.r	8D#/L
.	8C#/J
.	4.D#\
.	8D#\
=16	=16
2.r	2.D#\
==	==
*-	*-
